www/assets/images/test_icons/flags/IQ.svg

<svg fill="none" height="15" viewBox="0 0 21 15" width="21" xmlns="http://www.w3.org/2000/svg" xmlns:xlink="http://www.w3.org/1999/xlink"><mask id="a" height="15" maskUnits="userSpaceOnUse" width="21" x="0" y="0"><path d="m19 0h-17c-1.10457 0-2 .89543-2 2v11c0 1.1046.89543 2 2 2h17c1.1046 0 2-.8954 2-2v-11c0-1.10457-.8954-2-2-2z" fill="#fff"/></mask><g mask="url(#a)"><path d="m19 0h-17c-1.10457 0-2 .89543-2 2v11c0 1.1046.89543 2 2 2h17c1.1046 0 2-.8954 2-2v-11c0-1.10457-.8954-2-2-2z" fill="#fff"/><g clip-rule="evenodd" fill-rule="evenodd"><path d="m0 10h21v5h-21z" fill="#000"/><path d="m10 8h1v.495c0 .29.224.505.5.505.268 0 .5-.226.5-.505v-2c0-.273.232-.495.5-.495.276 0 .5.216.5.495v1.505h1.49c.282 0 .51.232.51.5 0 .276-.222.5-.51.5h-7.98c-.282 0-.51-.232-.51-.5 0-.212.13-.393.32-.466.025-.064.063-.125.116-.177l1.42-1.42c.194-.194.515-.187.705.002.196.195.202.505.004.703l-.858.858h1.293v-.495c0-.28.232-.505.5-.505.276 0 .5.214.5.505z" fill="#007b3a"/><path d="m0 0h21v5h-21z" fill="#d0091e"/></g><path d="m19 .5h-17c-.82843 0-1.5.67157-1.5 1.5v11c0 .8284.67157 1.5 1.5 1.5h17c.8284 0 1.5-.6716 1.5-1.5v-11c0-.82843-.6716-1.5-1.5-1.5z" stroke="#000" stroke-opacity=".1"/></g></svg>

<svg width="21" height="15" viewBox="0 0 21 15" fill="none" xmlns="http://www.w3.org/2000/svg">
<mask id="mask0_3_130" style="mask-type:alpha" maskUnits="userSpaceOnUse" x="0" y="0" width="21" height="15">
<path d="M19 0H2C0.89543 0 0 0.89543 0 2V13C0 14.1046 0.89543 15 2 15H19C20.1046 15 21 14.1046 21 13V2C21 0.89543 20.1046 0 19 0Z" fill="white"/>
</mask>
<g mask="url(#mask0_3_130)">
<path d="M19 0H2C0.89543 0 0 0.89543 0 2V13C0 14.1046 0.89543 15 2 15H19C20.1046 15 21 14.1046 21 13V2C21 0.89543 20.1046 0 19 0Z" fill="white"/>
<path fill-rule="evenodd" clip-rule="evenodd" d="M0 10H21V15H0V10Z" fill="black"/>
<path fill-rule="evenodd" clip-rule="evenodd" d="M10 8H11V8.495C11 8.785 11.224 9 11.5 9C11.768 9 12 8.774 12 8.495V6.495C12 6.222 12.232 6 12.5 6C12.776 6 13 6.216 13 6.495V8H14.49C14.772 8 15 8.232 15 8.5C15 8.776 14.778 9 14.49 9H6.51C6.228 9 6 8.768 6 8.5C6 8.288 6.13 8.107 6.32 8.034C6.345 7.97 6.383 7.909 6.436 7.857L7.856 6.437C8.05 6.243 8.371 6.25 8.561 6.439C8.757 6.634 8.763 6.944 8.565 7.142L7.707 8H9V7.505C9 7.225 9.232 7 9.5 7C9.776 7 10 7.214 10 7.505V8Z" fill="#007B3A"/>
<path fill-rule="evenodd" clip-rule="evenodd" d="M0 0H21V5H0V0Z" fill="#D0091E"/>
<path d="M19 0.5H2C1.17157 0.5 0.5 1.17157 0.5 2V13C0.5 13.8284 1.17157 14.5 2 14.5H19C19.8284 14.5 20.5 13.8284 20.5 13V2C20.5 1.17157 19.8284 0.5 19 0.5Z" stroke="black" stroke-opacity="0.1"/>
</g>
</svg>
